app/images/icons/visa.svg

<svg width="27" height="9" viewBox="0 0 27 9" fill="none" xmlns="http://www.w3.org/2000/svg">
<path d="M10.8109 0.138672L9.43872 8.19118H11.6333L13.0066 0.138672H10.8109Z" fill="#ECEBEB"/>
<path d="M7.59845 0.147201L5.44901 5.63878L5.21984 4.8096C4.79593 3.81051 3.59252 2.37567 2.17969 1.47141L4.14512 8.18673L6.46728 8.18277L9.92344 0.145508L7.59845 0.147201Z" fill="#ECEBEB"/>
<path d="M4.38694 0.724027C4.25937 0.233516 3.88966 0.0873223 3.43075 0.0698242H0.0282227L0 0.23013C2.64786 0.872479 4.39992 2.42021 5.12694 4.28122L4.38694 0.724027Z" fill="#ECEBEB"/>
<path d="M17.4545 1.68207C18.1725 1.67078 18.6929 1.8277 19.0971 1.99027L19.2952 2.0834L19.5921 0.338108C19.1574 0.17498 18.4762 0 17.6261 0C15.4575 0 13.9289 1.09222 13.9171 2.65745C13.9029 3.81402 15.0059 4.45975 15.839 4.84528C16.6942 5.24039 16.9809 5.49158 16.977 5.84436C16.9702 6.38341 16.2951 6.63065 15.6646 6.63065C14.7858 6.63065 14.3189 6.50929 13.5981 6.209L13.3153 6.0803L13.0066 7.8826C13.5202 8.10782 14.468 8.30143 15.4518 8.31159C17.7587 8.31159 19.2579 7.23235 19.2737 5.55987C19.2833 4.64489 18.698 3.94666 17.4297 3.37374C16.662 3.00007 16.1924 2.75171 16.1969 2.37466C16.1969 2.03994 16.5954 1.68207 17.4545 1.68207Z" fill="#ECEBEB"/>
<path d="M25.2241 0.147461H23.5285C23.0019 0.147461 22.6101 0.290832 22.3787 0.815775L19.1201 8.19545H21.4248C21.4248 8.19545 21.8007 7.20314 21.8859 6.98583C22.1383 6.98583 24.3774 6.98921 24.6964 6.98921C24.7618 7.27031 24.9639 8.19545 24.9639 8.19545H26.9999L25.2241 0.147461ZM22.5176 5.33762C22.6982 4.87533 23.3919 3.08714 23.3919 3.08714C23.3801 3.10915 23.5708 2.62146 23.6843 2.31835L23.8322 3.01263C23.8322 3.01263 24.2527 4.93516 24.3408 5.33762H22.5176Z" fill="#ECEBEB"/>
</svg>

<svg width="27" height="9" fill="none" xmlns="http://www.w3.org/2000/svg"><path d="M10.81.14 9.44 8.19h2.2L13 .14h-2.2ZM7.6.14l-2.15 5.5-.23-.83a8.61 8.61 0 0 0-3.04-3.34L4.15 8.2h2.32L9.92.14H7.6Z" fill="#ECEBEB"/><path d="M4.39.72C4.26.23 3.89.1 3.43.07H.03L0 .23c2.65.64 4.4 2.19 5.13 4.05L4.39.72Zm13.06.96A4.05 4.05 0 0 1 19.1 2l.2.1.3-1.75A5.67 5.67 0 0 0 17.62 0c-2.17 0-3.7 1.1-3.71 2.66-.02 1.15 1.09 1.8 1.92 2.19.85.39 1.14.64 1.14 1-.01.53-.68.78-1.31.78-.88 0-1.35-.12-2.07-.42l-.28-.13-.31 1.8c.51.23 1.46.42 2.44.43 2.3 0 3.8-1.08 3.82-2.75.01-.92-.57-1.61-1.84-2.19-.77-.37-1.24-.62-1.23-1 0-.33.4-.69 1.26-.69ZM25.22.15h-1.69c-.53 0-.92.14-1.15.67L19.12 8.2h2.3l.47-1.21h2.8l.28 1.2H27L25.22.16Zm-2.7 5.19.87-2.25.3-.77.14.7.51 2.32h-1.82Z" fill="#ECEBEB"/></svg>
